X:1
T:Französische Suite Nr I
T:Französische Suite Nr 1
T: D minor, BWV 812
T:J.S. Bach
T:1 Allemande
C:J.S. Bach
%%score { ( 1 3 5 6 ) | ( 2 4 ) }
L:1/8
Q:1/4=58
M:4/4
K:F
V:1 treble nm="Piano"
V:3 treble 
V:5 treble 
V:6 treble 
V:2 bass 
V:4 bass 
V:1
!f!"^Molto moderato (sonore)" d/ | d/A/B/G/ A/F/E/D/ z/ B/e/g/- g/g/f/e/ | %2
 g/f/e/d/ f2 !arpeggio!e>e a/e/f/^c/ | d2- d/f/e/g/ d/^c/=B/A/ =c2 | c<_B- B2- B/=E/A- A>B | %5
 G2 G/F/E/F/ G/F/E/D/ MB>B | B/G/A/c/ _e2- e>d z/ B/d/g/ | c2- c/B/A/B/ c/A/B/!f!G/ e>e | %8
 e/a/f/^c/ Md>d g2- g/g/f/e/ | f/^c/d/f/ !^!b>b b/a/4g/4f/4g/4e/ !^!a2- | %10
 a/g/b/a/ g/f/e/d/ ^c>d e/f/g- | g/f/e/f/ Pf>e e2 z2 | z/ A/d/f/- f/f/!f!e/d/ A3 z/ :: e/ | %14
!mf! e/a/g/e/ f/d/^c/=B/ c4- | ^c/e/d/B/ G/B/A/G/ F/^C/D/-F/!>(! B>B!>)! | %16
!p! B/G/A/c/ _e2- e/c/d/^f/ g>g | g/d/_e/=B/ c2- c2 z/ ^F/A/_e/ | %18
 d/c/4B/4A/4B/4G/- G/^F/A/c/ B/A/G/A/ B>B | B/g/e/c/ TB3/2A/4B/4 A>=B ^c/d/e/f/ | %20
 g/a/4b/4a/4b/4g/ f/g/4f/4e/4f/4d/ ^c=B/A/ Me>e | e/^c/d/f/ g2- g>g f2- | %22
 f/B/_e- e/c/d/e/ d>d- d/G/c- | c2- c/_e/d/c/ B2 z/ G/A/B/ | %24
 z/ =E/A- A/=B/^c/d/ e/f/4g/4!f!f/4g/4e/ Pe>d | d2- d>^c d>(A [Ad]) z/ :| %26
V:2
 z/ | D,8- | D2 D2- D/D/C/B,/ CA, | B,A,B,G, A,G,^F,D, | G,G,, MG,>G, G,3/2F,/4E,/4 F,2- | %5
 F,3/2G,/4F,/4 E,A, D,2 z/ D/P=C/_B,/ | CB,A,F, MB,B,, MB,>B, | %7
 F,3/2C/4B,/4 B,/D/C/D/ G,2 z/ ^C/D/E/ | F,F- F/F/E/D/ MEG,A,A,, | %9
 D,2- D,/E,/F,/G,/ !^!=C,2- C,/D,/E,/F,/ | B,,2 !>!B,2- B,/A,/B,/A,/ G,/F,/E,/D,/ | %11
 z A,2 ^G, !tenuto!A,4- | A,4- A,3 z/ :: z/ | z ^CDF E2 A,/B,/A,/G,/ | %15
 z A, B,/G,/^C z F,- F,/G,/A,/B,/ | =CB, A,F, B,2- D2 | z G, A,2 z/ C/D/A,/ B,2- | %18
 B,C D2- D/C/B,/A,/ G,/=F,/E,/D,/ | z2 C2- C/C/B,/A,/ G,/F,/E,/D,/ | %20
 ^C,A,,D,G,, A,,A,- A,/G,/F,/E,/ | z A,=B,^C D4- | D=C/B,/ CF, B,2- B,>B, | %23
 A,/G,/^F,/E,/ D,/C,/B,,/A,,/ G,,2 G,>G, | G,/=F,/E,/D,/ ^C,/=B,,/A,,/G,,/ z/ A,,/D,- D,^C, | %25
 D,4- D,3 z/ :| %26
V:3
 x/ | x9/2 B3/2 A2- | A2 z/ A/B/F/ B3 x | A/A/B/F/ x4 z/ G/A/^F/ | GD/=F/ _E/G/^C/D/ C2 z/ A,/D | %5
 z/ D/E/=B,/ ^C2 x4 | x2 z/ c/A/F/ F2 G2 | z/ G/A/E/ ^F2 x4 | x4 z/ d/e/=B/ ^c2 | x6 z/ g/f/e/ | %10
 d3 z z2 z g/B/ | A2- Ad- d/=B/^c/A/ _B/G/F/E/ | F2 ^G2 !arpeggio![^cea]3 z/ :: x/ | %14
 x4 z/ A/_B/-G/- [EG]2 | x5 D D2 | _E2 z/ c/A/F/ z z/ x5/2 | x2 z/ A/_B/G/ ^F2 x2 | x8 | x8 | x8 | %21
 x2 z/ A/_B/G/ z/ A/^c/g/ f/d/B/A/ | G>G A2- A/A/B =E2- | E/B/A/G/ ^F2 z/ F/G/D/ _E2 | ^C2 x6 | %25
 z/ _B/c/A/ B/^F/G- G/E/F- [DFA] z/ :| %26
V:4
 x/ | x4 ^C4 | D,A, x4 E[I:staff -1]A- | x2[I:staff +1] G4 x2 | x8 | x8 | x8 | x8 | F,2 x6 | x8 | %10
 x8 | ^C,2 D,2 !tenuto!A,,4- | A,,4- A,,3 z/ :: x/ | A,4 A,2- z2 | F,2- F,/G,/E, D,4 | %16
 x11/2 C/ B,/G,/A,/B,/ | _E,2- E,/C,/D,/E,/ D,4- | D,3 D, G,2 x2 | C,D,E,C, F,2 x2 | x8 | %21
 F,3 E, D,4 | x8 | x8 | x4 F,,>G,, A,,2 | D,,4- D,,3 z/ :| %26
V:5
 x/ | x8 | x4 G3 x | x8 | x8 | x8 | x5/2 c x/ z/ A/B x2 | x8 | x8 | x8 | x8 | x8 | x15/2 :: x/ | %14
 x5 B B2 | x4 z x3 | x8 | x8 | x8 | x8 | x8 | x8 | x8 | x8 | x8 | x15/2 :| %26
V:6
 x/ | x8 | x8 | x8 | x8 | x8 | x3 A x4 | x8 | x8 | x8 | x8 | x8 | x15/2 :: x/ | x8 | x8 | x8 | x8 | %18
 x8 | x8 | x8 | x8 | x8 | x8 | x8 | x15/2 :| %26

